Sources/FrostedUI/Resources/Icons.xcassets/people20.imageset/people-20.svg

<svg width="20" height="20" viewBox="0 0 20 20" fill="none" xmlns="http://www.w3.org/2000/svg" data-fui-icon="true">
  <path
    d="M6.66711 9.875C8.33816 9.8751 9.69781 10.544 10.6906 11.6543C11.6681 12.7477 12.2638 14.2368 12.5157 15.8701C12.6657 16.8441 11.8796 17.6249 10.9786 17.625H2.35461C1.45378 17.6248 0.667563 16.844 0.817505 15.8701C1.06949 14.2368 1.66518 12.7477 2.6427 11.6543C3.63552 10.5439 4.99588 9.875 6.66711 9.875ZM14.1671 9.875C15.637 9.87507 16.8431 10.4466 17.7316 11.4033C18.6054 12.3445 19.1432 13.6238 19.382 15.0244C19.5498 16.0094 18.7502 16.7919 17.8527 16.792H14.7921C14.378 16.792 14.0423 16.4561 14.0421 16.042C14.0421 15.6278 14.3779 15.292 14.7921 15.292H17.8527C17.8789 15.292 17.8954 15.2811 17.9025 15.2734V15.2725C17.698 14.0766 17.256 13.095 16.6329 12.4238C16.0234 11.7675 15.2128 11.3751 14.1671 11.375C13.8524 11.375 13.5618 11.4104 13.295 11.4756C12.8928 11.5737 12.4871 11.3271 12.3888 10.9248C12.2907 10.5225 12.5373 10.1168 12.9396 10.0186C13.3285 9.92357 13.7385 9.875 14.1671 9.875ZM6.66711 11.375C5.43604 11.375 4.47805 11.8522 3.76086 12.6543C3.02857 13.4735 2.52117 14.6646 2.29993 16.0986V16.0996C2.30015 16.1001 2.30115 16.1025 2.30383 16.1055C2.31218 16.1145 2.32883 16.1249 2.35461 16.125H10.9786C11.0049 16.125 11.0221 16.1146 11.0304 16.1055C11.0335 16.1021 11.0343 16.0996 11.0343 16.0996C11.0336 16.1018 11.0339 16.1028 11.0333 16.0986C10.8121 14.6645 10.3048 13.4735 9.57239 12.6543C8.85527 11.8522 7.89804 11.3751 6.66711 11.375ZM6.66711 2.375C8.57683 2.37519 10.1249 3.92329 10.1251 5.83301C10.1251 7.74287 8.57693 9.2918 6.66711 9.29199C4.75713 9.29199 3.20813 7.74299 3.20813 5.83301C3.20831 3.92317 4.75724 2.375 6.66711 2.375ZM14.1671 3.20801C15.8468 3.2082 17.2081 4.57025 17.2081 6.25C17.2081 7.92975 15.8468 9.2918 14.1671 9.29199C12.4872 9.29199 11.1251 7.92987 11.1251 6.25C11.1251 4.57013 12.4872 3.20801 14.1671 3.20801ZM6.66711 3.875C5.58566 3.875 4.70831 4.7516 4.70813 5.83301C4.70813 6.91457 5.58556 7.79199 6.66711 7.79199C7.74851 7.7918 8.62512 6.91445 8.62512 5.83301C8.62495 4.75172 7.7484 3.87519 6.66711 3.875ZM14.1671 4.70801C13.3157 4.70801 12.6251 5.39856 12.6251 6.25C12.6251 7.10144 13.3157 7.79199 14.1671 7.79199C15.0184 7.7918 15.7081 7.10132 15.7081 6.25C15.7081 5.39868 15.0184 4.7082 14.1671 4.70801Z"
    fill="currentColor"
  />
</svg>

<svg xmlns="http://www.w3.org/2000/svg" width="20" height="20" fill="none" data-fui-icon="true" viewBox="0 0 20 20"><path fill="currentColor" d="M6.667 9.875c1.671 0 3.03.669 4.024 1.78.977 1.093 1.573 2.582 1.825 4.215.15.974-.636 1.755-1.537 1.755H2.355c-.901 0-1.687-.781-1.537-1.755.251-1.633.847-3.122 1.825-4.216.993-1.11 2.353-1.779 4.024-1.779m7.5 0c1.47 0 2.676.572 3.565 1.528.873.941 1.411 2.22 1.65 3.621.168.985-.632 1.768-1.53 1.768h-3.06a.75.75 0 0 1 0-1.5h3.06c.027 0 .043-.01.05-.019-.204-1.196-.646-2.178-1.27-2.85-.609-.655-1.42-1.048-2.465-1.048q-.472.001-.872.1a.75.75 0 0 1-.355-1.456 5.2 5.2 0 0 1 1.227-.144m-7.5 1.5c-1.231 0-2.189.477-2.906 1.28-.732.819-1.24 2.01-1.461 3.444l.004.006c.008.01.025.02.05.02h8.625a.07.07 0 0 0 .051-.02q.005-.005.004-.005v-.001c-.222-1.434-.73-2.626-1.462-3.445-.717-.802-1.674-1.279-2.905-1.279m0-9a3.458 3.458 0 1 1 0 6.917 3.458 3.458 0 0 1 0-6.917m7.5.833a3.042 3.042 0 1 1-.001 6.083 3.042 3.042 0 0 1 .001-6.083m-7.5.667a1.959 1.959 0 1 0 0 3.918 1.959 1.959 0 0 0 0-3.918m7.5.833a1.542 1.542 0 1 0 0 3.085 1.542 1.542 0 0 0 0-3.085"/></svg>
